packages/astro-components-stencil/src/icons/text-format.svg

<svg xmlns="http://www.w3.org/2000/svg" viewBox="0 0 24 24"><g xmlns="http://www.w3.org/2000/svg" id="text-format" fill-rule="nonzero">
            <path d="M5 18c0 .55.45 1 1 1h12c.55 0 1-.45 1-1s-.45-1-1-1H6c-.55 0-1 .45-1 1zm4.5-5.2h5l.66 1.6c.15.36.5.6.89.6.69 0 1.15-.71.88-1.34l-3.88-8.97C12.87 4.27 12.46 4 12 4c-.46 0-.87.27-1.05.69l-3.88 8.97c-.27.63.2 1.34.89 1.34.39 0 .74-.24.89-.6l.65-1.6zM12 5.98L13.87 11h-3.74L12 5.98z"/>
        </g></svg>

<svg width="24" height="24" viewBox="0 0 24 24" fill="none" xmlns="http://www.w3.org/2000/svg">
<path fill-rule="evenodd" clip-rule="evenodd" d="M14.5 12.8L15.16 14.4C15.31 14.76 15.66 15 16.05 15C16.74 15 17.2 14.29 16.93 13.66L13.05 4.69C12.87 4.27 12.46 4 12 4C11.54 4 11.13 4.27 10.95 4.69L7.07 13.66C6.8 14.29 7.27 15 7.96 15C8.35 15 8.7 14.76 8.85 14.4L9.5 12.8H14.5ZM5 18C5 18.55 5.45 19 6 19H18C18.55 19 19 18.55 19 18C19 17.45 18.55 17 18 17H6C5.45 17 5 17.45 5 18ZM13.87 11L12 5.98L10.13 11H13.87Z" fill="black"/>
</svg>
